X:1
T:Title
%%score ( 1 2 ) { 3 | 4 }
L:1/8
Q:1/4=115
M:3/4
K:G
V:1 treble nm="Grand Piano, Staff 1"
V:2 treble 
V:3 treble nm="Choir Pad, Middlesex, 88.88.88"
V:4 bass 
V:1
 [GB]2 [GB]2 [FA]2 | G4 GB | c2- [Fc]2 [GB]2 | [FA]4 [FA]2 | d2- [Gd]2 [Ac]2 | [GB]4 cA | %6
w: By~Anonymous,~before~1875 * *||||||
 [DG]4 [DF]2 | [DG]4 z2 | [GB]2 [GB]2 [FA]2 | G2 A2 [GB]2 | c2- [Fc]2 [GB]2 | [FA]4 [FA]2 | %12
w: ||||||
 d2- [Gd]2 [Ac]2 | [GB]4 cA | [DG]4 [DF]2 | [DG]4 [GB]2 | [Gd]4 [Ge]2 | d2 c2 [Ad]2 | c2 B2 [Gc]2 | %19
w: |||||||
 [GB]2 [FA]2 [Fd]2 | [Gd]4 [Gc]2 | [FB]4 [GB]2 | BA G2 F2 | [DG]6- | [DG]2 z2 z2 |] %25
w: ||||||
V:2
 x6 | z2 z2 E2 | E2 z2 z2 | x6 | F2 z2 z2 | z2 z2 E2 | x6 | x6 | x6 | x6 | E2 z2 z2 | x6 | %12
 F2 z2 z2 | z2 z2 E2 | x6 | x6 | x6 | G4 z2 | G4 z2 | x6 | x6 | x6 | E2 D4 | x6 | x6 |] %25
V:3
 D2 D2 C2 | B,4 ED | C4 D2 | D4 D2 | D4 D2 | D4 C2 | B,4 A,2 | B,4 z2 | D2 D2 C2 | B,2 E2 D2 | %10
 C4 D2 | D4 D2 | D4 D2 | D4 C2 | B,4 A,2 | B,4 B,2 | B,4 B,2 | E4 D2 | D4 E2 | D4 D2 | B,4 E2 | %21
 D4 D2 | C2 B,2 A,2 | B,6- | B,2 z2 z2 |] %25
V:4
 G,,2 B,,2 D,2 | E,4 C,B,, | A,,4 G,,2 | D,4 D,2 | B,,4 F,2 | G,4 C,2 | D,4 D,2 | G,,4 z2 | %8
 G,,2 B,,2 D,2 | E,2 C,2 B,,2 | A,,4 G,,2 | D,4 D,2 | B,,4 F,2 | G,4 C,2 | D,4 D,2 | G,,4 G,2 | %16
 G,4 G,2 | E,4 F,2 | G,4 C,2 | D,4 B,,2 | E,4 A,,2 | D,4 G,,2 | C,2 D,2 D,2 | G,,6- | G,,2 z2 z2 |] %25

